storage/app/icons/tabler/filled/square-rounded-letter-b.svg

<!--
unicode: "fdec"
version: "3.0"
-->
<svg
  xmlns="http://www.w3.org/2000/svg"
  width="24"
  height="24"
  viewBox="0 0 24 24"
  fill="currentColor"
>
  <path d="M11.676 2.001l.324 -.001c7.752 0 10 2.248 10 10l-.005 .642c-.126 7.235 -2.461 9.358 -9.995 9.358l-.642 -.005c-7.13 -.125 -9.295 -2.395 -9.358 -9.67v-.325c0 -7.643 2.185 -9.936 9.676 -9.999m.324 4.999h-2a1 1 0 0 0 -1 1v8a1 1 0 0 0 1 1h2a3 3 0 0 0 3 -3l-.005 -.176a3 3 0 0 0 -.654 -1.7l-.106 -.124l.106 -.124a3 3 0 0 0 -2.341 -4.876m0 6a1 1 0 0 1 0 2h-1v-2zm0 -4a1 1 0 0 1 0 2h-1v-2z" />
</svg>

<svg xmlns="http://www.w3.org/2000/svg" width="24" height="24" fill="currentColor" viewBox="0 0 24 24"><path d="M11.676 2.001 12 2c7.752 0 10 2.248 10 10l-.005.642C21.869 19.877 19.534 22 12 22l-.642-.005C4.228 21.87 2.063 19.6 2 12.325V12c0-7.643 2.185-9.936 9.676-9.999M12 7h-2a1 1 0 0 0-1 1v8a1 1 0 0 0 1 1h2a3 3 0 0 0 3-3l-.005-.176a3 3 0 0 0-.654-1.7L14.235 12l.106-.124A3 3 0 0 0 12 7m0 6a1 1 0 0 1 0 2h-1v-2zm0-4a1 1 0 0 1 0 2h-1V9z"/></svg>
